assets/Exploding head/Flat/exploding_head_flat.svg

<svg width="32" height="32" viewBox="0 0 32 32" fill="none" xmlns="http://www.w3.org/2000/svg">
<path d="M16 30C25.33 30 30 23.7394 30 16.021C30 11.9471 25.34 10 16 10C6.67 10 2 11.0884 2 16.021C2 23.7494 6.66 30 16 30Z" fill="#FFB02E"/>
<path d="M14.93 20.46C14.93 22.9342 12.9242 24.94 10.45 24.94C7.97573 24.94 5.96997 22.9342 5.96997 20.46C5.96997 17.9857 7.97573 15.98 10.45 15.98C12.9242 15.98 14.93 17.9857 14.93 20.46Z" fill="white"/>
<path d="M25.93 20.46C25.93 22.9342 23.9242 24.94 21.45 24.94C18.9757 24.94 16.97 22.9342 16.97 20.46C16.97 17.9857 18.9757 15.98 21.45 15.98C23.9242 15.98 25.93 17.9857 25.93 20.46Z" fill="white"/>
<path d="M13.97 20.9399C13.97 22.0445 13.0745 22.9399 11.97 22.9399C10.8654 22.9399 9.96997 22.0445 9.96997 20.9399C9.96997 19.8354 10.8654 18.9399 11.97 18.9399C13.0745 18.9399 13.97 19.8354 13.97 20.9399Z" fill="#402A32"/>
<path d="M21.97 20.9399C21.97 22.0445 21.0745 22.9399 19.97 22.9399C18.8654 22.9399 17.97 22.0445 17.97 20.9399C17.97 19.8354 18.8654 18.9399 19.97 18.9399C21.0745 18.9399 21.97 19.8354 21.97 20.9399Z" fill="#402A32"/>
<path d="M15.97 28.91C14.61 28.91 13.5 27.8 13.5 26.44C13.5 25.08 14.61 23.97 15.97 23.97C17.33 23.97 18.44 25.08 18.44 26.44C18.44 27.8 17.33 28.91 15.97 28.91Z" fill="#BB1D80"/>
<path d="M25.98 12.97C25.98 13.9566 22.9066 14.7694 17.9607 14.9379L16.043 14.1094L13.9689 14.9337C9.07948 14.7554 6.02002 13.9405 6.02002 12.97C6.02002 11.87 9.94002 10.97 16.02 10.97C22.1 10.97 25.98 11.87 25.98 12.97Z" fill="#FF6723"/>
<path d="M13.9699 14.94C13.9699 14.2215 13.8894 13.5248 13.7401 12.8677L15.9999 9L18.1932 12.8744C18.0481 13.5271 17.9699 14.2208 17.9699 14.94H13.9699Z" fill="white"/>
<path d="M20.1432 8.79982C19.2443 10.1275 17.7241 11 16 11C14.2759 11 12.7557 10.1275 11.8568 8.79983C11.1308 9.5405 10.1191 10 9 10C6.79086 10 5 8.20918 5 6.00004C5 3.7909 6.79086 2.52173 9 2.52173C9.68024 2.52173 10.3208 2.69153 10.8817 2.99106C11.4393 3.28888 12.1885 3.22466 12.6587 2.80203C13.5442 2.00605 14.7156 1.52173 16 1.52173C17.2844 1.52173 18.4558 2.00605 19.3413 2.80203C19.8115 3.22466 20.5607 3.28888 21.1183 2.99106C21.6792 2.69153 22.3198 2.52173 23 2.52173C25.2091 2.52173 27 3.7909 27 6.00004C27 8.20918 25.2091 10 23 10C21.8809 10 20.8692 9.5405 20.1432 8.79982Z" fill="#D3D3D3"/>
<path d="M27 6C27 6.0736 26.8941 6.07893 26.8759 6.00762C26.4345 4.27853 24.8666 3 23 3C22.3198 3 21.6792 3.1698 21.1183 3.46933C20.5607 3.76715 19.8115 3.70293 19.3413 3.2803C18.4558 2.48432 17.2844 2 16 2C14.7156 2 13.5442 2.48432 12.6587 3.2803C12.1885 3.70293 11.4393 3.76715 10.8817 3.46933C10.3208 3.1698 9.68024 3 9 3C7.13342 3 5.56545 4.27853 5.12406 6.00762C5.10586 6.07893 5 6.0736 5 6C5 3.79086 6.79086 2 9 2C9.68024 2 10.3208 2.1698 10.8817 2.46933C11.4393 2.76715 12.1885 2.70293 12.6587 2.2803C13.5442 1.48432 14.7156 1 16 1C17.2844 1 18.4558 1.48432 19.3413 2.2803C19.8115 2.70293 20.5607 2.76715 21.1183 2.46933C21.6792 2.1698 22.3198 2 23 2C25.2091 2 27 3.79086 27 6Z" fill="#E6E6E6"/>
<path d="M16.8587 12.3792C16.3509 12.0567 15.6491 12.0567 15.1413 12.3792C14.5222 12.7723 13.7877 13 13 13C10.7909 13 9 11.2091 9 8.99996C9 6.79083 10.7909 5.54236 13 5.54236C13.7877 5.54236 14.5222 5.77003 15.1413 6.16315C15.6491 6.48563 16.3509 6.48563 16.8587 6.16315C17.4778 5.77003 18.2123 5.54236 19 5.54236C21.2091 5.54236 23 6.79083 23 8.99996C23 11.2091 21.2091 13 19 13C18.2123 13 17.4778 12.7723 16.8587 12.3792Z" fill="#C9C9C9"/>
<path d="M23 9C23 9.0736 22.8941 9.07893 22.8759 9.00762C22.4346 7.27853 20.8666 6 19 6C18.2123 6 17.4778 6.22767 16.8587 6.6208C16.3509 6.94327 15.6491 6.94327 15.1413 6.6208C14.5222 6.22767 13.7877 6 13 6C11.1334 6 9.56545 7.27853 9.12406 9.00762C9.10586 9.07893 9 9.0736 9 9C9 6.79086 10.7909 5 13 5C13.7877 5 14.5222 5.22767 15.1413 5.6208C15.6491 5.94327 16.3509 5.94327 16.8587 5.6208C17.4778 5.22767 18.2123 5 19 5C21.2091 5 23 6.79086 23 9Z" fill="white"/>
<path d="M7 4.5C7 5.32843 6.32843 6 5.5 6C4.67157 6 4 5.32843 4 4.5C4 3.67157 4.67157 3 5.5 3C6.32843 3 7 3.67157 7 4.5Z" fill="#FFB02E"/>
<path d="M24.38 6.76C25.1422 6.76 25.76 6.14215 25.76 5.38C25.76 4.61785 25.1422 4 24.38 4C23.6178 4 23 4.61785 23 5.38C23 6.14215 23.6178 6.76 24.38 6.76Z" fill="#FFB02E"/>
<path d="M5 9C5 9.55229 4.55228 10 4 10C3.44772 10 3 9.55229 3 9C3 8.44772 3.44772 8 4 8C4.55228 8 5 8.44772 5 9Z" fill="#FFB02E"/>
<path d="M28 10C28 10.5523 27.5523 11 27 11C26.4477 11 26 10.5523 26 10C26 9.44772 26.4477 9 27 9C27.5523 9 28 9.44772 28 10Z" fill="#FFB02E"/>
</svg>

<svg xmlns="http://www.w3.org/2000/svg" width="32" height="32" fill="none"><path fill="#FFB02E" d="M16 30c9.33 0 14-6.26 14-13.979C30 11.947 25.34 10 16 10c-9.33 0-14 1.088-14 6.021C2 23.749 6.66 30 16 30Z"/><path fill="#fff" d="M14.93 20.46a4.48 4.48 0 1 1-8.96 0 4.48 4.48 0 0 1 8.96 0ZM25.93 20.46a4.48 4.48 0 1 1-8.96 0 4.48 4.48 0 0 1 8.96 0Z"/><path fill="#402A32" d="M13.97 20.94a2 2 0 1 1-4 0 2 2 0 0 1 4 0ZM21.97 20.94a2 2 0 1 1-4 0 2 2 0 0 1 4 0Z"/><path fill="#BB1D80" d="M15.97 28.91c-1.36 0-2.47-1.11-2.47-2.47s1.11-2.47 2.47-2.47 2.47 1.11 2.47 2.47-1.11 2.47-2.47 2.47Z"/><path fill="#FF6723" d="M25.98 12.97c0 .987-3.073 1.8-8.02 1.968l-1.917-.829-2.074.825c-4.89-.179-7.949-.993-7.949-1.964 0-1.1 3.92-2 10-2s9.96.9 9.96 2Z"/><path fill="#fff" d="M13.97 14.94c0-.718-.08-1.415-.23-2.072L16 9l2.193 3.874a9.528 9.528 0 0 0-.223 2.066h-4Z"/><path fill="#D3D3D3" d="M20.143 8.8A4.995 4.995 0 0 1 16 11a4.995 4.995 0 0 1-4.143-2.2A4 4 0 0 1 5 6c0-2.21 1.79-3.478 4-3.478.68 0 1.32.17 1.882.47.557.297 1.306.233 1.777-.19A4.981 4.981 0 0 1 16 1.522c1.284 0 2.456.484 3.341 1.28.47.423 1.22.487 1.777.19.561-.3 1.202-.47 1.882-.47 2.21 0 4 1.269 4 3.478a4 4 0 0 1-6.857 2.8Z"/><path fill="#E6E6E6" d="M27 6c0 .074-.106.079-.124.008a4.002 4.002 0 0 0-5.758-2.539c-.557.298-1.306.234-1.777-.189A4.981 4.981 0 0 0 16 2a4.981 4.981 0 0 0-3.341 1.28c-.47.423-1.22.487-1.777.19a4.002 4.002 0 0 0-5.758 2.538C5.106 6.078 5 6.074 5 6a4 4 0 0 1 5.882-3.53c.557.297 1.306.233 1.777-.19A4.981 4.981 0 0 1 16 1c1.284 0 2.456.484 3.341 1.28.47.423 1.22.487 1.777.19A4 4 0 0 1 27 6Z"/><path fill="#C9C9C9" d="M16.859 12.38a1.645 1.645 0 0 0-1.718 0A4 4 0 0 1 9 9c0-2.21 1.79-3.458 4-3.458.788 0 1.522.228 2.141.621.508.323 1.21.323 1.718 0A3.981 3.981 0 0 1 19 5.543c2.21 0 4 1.248 4 3.457a4 4 0 0 1-6.141 3.38Z"/><path fill="#fff" d="M23 9c0 .074-.106.079-.124.008a4.002 4.002 0 0 0-6.017-2.387 1.645 1.645 0 0 1-1.718 0 4.002 4.002 0 0 0-6.017 2.387C9.106 9.078 9 9.074 9 9a4 4 0 0 1 6.141-3.38c.508.323 1.21.323 1.718 0A4 4 0 0 1 23 9Z"/><path fill="#FFB02E" d="M7 4.5a1.5 1.5 0 1 1-3 0 1.5 1.5 0 0 1 3 0ZM24.38 6.76a1.38 1.38 0 1 0 0-2.76 1.38 1.38 0 0 0 0 2.76ZM5 9a1 1 0 1 1-2 0 1 1 0 0 1 2 0ZM28 10a1 1 0 1 1-2 0 1 1 0 0 1 2 0Z"/></svg>
